public/images/case-studies/filemaker/featured2.svg

<svg width="64" height="64" viewBox="0 0 64 64" fill="none" xmlns="http://www.w3.org/2000/svg">
<path d="M56.7343 60.1824H7.2657C3.25966 60.1824 0 56.9228 0 52.9167V10.9759C0 6.96987 3.25966 3.71021 7.2657 3.71021H56.7343C60.7403 3.71021 64 6.96987 64 10.9759V52.9167C64 56.9228 60.7403 60.1824 56.7343 60.1824ZM7.2657 5.87446C4.4529 5.87446 2.16425 8.1631 2.16425 10.9759V52.9167C2.16425 55.7295 4.4529 58.0182 7.2657 58.0182H56.7343C59.5471 58.0182 61.8357 55.7295 61.8357 52.9167V10.9759C61.8357 8.1631 59.5471 5.87446 56.7343 5.87446H7.2657Z" fill="#7F8284"/>
<path d="M54.2328 43.6613H37.2286C36.6308 43.6613 36.1465 43.177 36.1465 42.5792C36.1465 41.982 36.6308 41.4971 37.2286 41.4971H54.2328C54.8301 41.4971 55.315 41.982 55.315 42.5792C55.315 43.177 54.8307 43.6613 54.2328 43.6613Z" fill="#FF6B00"/>
<path d="M54.2328 51.4848H37.2286C36.6308 51.4848 36.1465 51.0005 36.1465 50.4027C36.1465 49.8055 36.6308 49.3206 37.2286 49.3206H54.2328C54.8301 49.3206 55.315 49.8055 55.315 50.4027C55.315 51.0005 54.8307 51.4848 54.2328 51.4848Z" fill="#FF6B00"/>
<path d="M54.2328 28.0139H37.2286C36.6308 28.0139 36.1465 27.5296 36.1465 26.9317C36.1465 26.3345 36.6308 25.8496 37.2286 25.8496H54.2328C54.8301 25.8496 55.315 26.3345 55.315 26.9317C55.315 27.5296 54.8307 28.0139 54.2328 28.0139Z" fill="#FF6B00"/>
<path d="M54.2328 35.8376H37.2286C36.6308 35.8376 36.1465 35.3533 36.1465 34.7555C36.1465 34.1582 36.6308 33.6733 37.2286 33.6733H54.2328C54.8301 33.6733 55.315 34.1582 55.315 34.7555C55.315 35.3533 54.8307 35.8376 54.2328 35.8376Z" fill="#FF6B00"/>
<path d="M62.9179 18.1999H1.08213C0.484299 18.1999 0 17.7156 0 17.1178C0 16.5199 0.484299 16.0356 1.08213 16.0356H62.9179C63.5157 16.0356 64 16.5199 64 17.1178C64 17.7156 63.5157 18.1999 62.9179 18.1999Z" fill="#7F8284"/>
<path d="M15.6002 14.3429C13.7433 14.3429 12.2324 12.8327 12.2324 10.9758C12.2324 9.11891 13.7433 7.60864 15.6002 7.60864C17.4571 7.60864 18.9673 9.11891 18.9673 10.9758C18.9673 12.8327 17.4571 14.3429 15.6002 14.3429ZM15.6002 9.77289C14.9365 9.77289 14.3967 10.3127 14.3967 10.9758C14.3967 11.6388 14.9365 12.1787 15.6002 12.1787C16.2632 12.1787 16.8031 11.6388 16.8031 10.9758C16.8031 10.3127 16.2632 9.77289 15.6002 9.77289Z" fill="#7F8284"/>
<path d="M7.8027 14.3429C5.94642 14.3429 4.43555 12.8327 4.43555 10.9758C4.43555 9.11891 5.94642 7.60864 7.8027 7.60864C9.65958 7.60864 11.1705 9.11891 11.1705 10.9758C11.1705 12.8327 9.65958 14.3429 7.8027 14.3429ZM7.8027 9.77289C7.13965 9.77289 6.5998 10.3127 6.5998 10.9758C6.5998 11.6388 7.13965 12.1787 7.8027 12.1787C8.46634 12.1787 9.0062 11.6388 9.0062 10.9758C9.0062 10.3127 8.46634 9.77289 7.8027 9.77289Z" fill="#7F8284"/>
<path d="M23.3964 14.3429C21.5396 14.3429 20.0293 12.8327 20.0293 10.9758C20.0293 9.11891 21.5396 7.60864 23.3964 7.60864C25.2533 7.60864 26.7642 9.11891 26.7642 10.9758C26.7642 12.8327 25.2533 14.3429 23.3964 14.3429ZM23.3964 9.77289C22.7328 9.77289 22.1935 10.3127 22.1935 10.9758C22.1935 11.6388 22.7334 12.1787 23.3964 12.1787C24.0601 12.1787 24.5999 11.6388 24.5999 10.9758C24.5999 10.3127 24.0601 9.77289 23.3964 9.77289Z" fill="#7F8284"/>
<path d="M29.0626 51.4849H9.42978C8.83196 51.4849 8.34766 51.0006 8.34766 50.4028V26.9317C8.34766 26.3345 8.83196 25.8496 9.42978 25.8496H29.0626C29.6605 25.8496 30.1448 26.3345 30.1448 26.9317V50.4028C30.1448 51.0006 29.6605 51.4849 29.0626 51.4849ZM10.5119 49.3206H27.9805V28.0139H10.5119V49.3206Z" fill="#FF6B00"/>
</svg>

<svg xmlns="http://www.w3.org/2000/svg" xmlns:xlink="http://www.w3.org/1999/xlink" width="64" height="64" fill="none" xmlns:v="https://vecta.io/nano"><path d="M56.734 60.182H7.266C3.26 60.182 0 56.923 0 52.917V10.976C0 6.97 3.26 3.71 7.266 3.71h49.469C60.74 3.71 64 6.97 64 10.976v41.941c0 4.006-3.26 7.266-7.266 7.266zM7.266 5.874a5.11 5.11 0 0 0-5.101 5.101v41.941a5.11 5.11 0 0 0 5.101 5.102h49.469a5.11 5.11 0 0 0 5.101-5.102V10.976a5.11 5.11 0 0 0-5.101-5.101H7.266z" fill="#7f8284"/><g fill="#ff6b00"><use xlink:href="#B"/><use xlink:href="#B" y="7.824"/><use xlink:href="#B" y="-15.647"/><use xlink:href="#B" y="-7.823"/></g><path d="M62.918 18.2H1.082a1.082 1.082 0 0 1 0-2.164h61.836a1.082 1.082 0 1 1 0 2.164zM15.6 14.343a3.37 3.37 0 0 1-3.368-3.367A3.37 3.37 0 0 1 15.6 7.609a3.37 3.37 0 0 1 3.367 3.367 3.37 3.37 0 0 1-3.367 3.367zm0-4.57c-.664 0-1.203.54-1.203 1.203s.54 1.203 1.204 1.203 1.203-.54 1.203-1.203-.54-1.203-1.203-1.203zm-7.797 4.57a3.37 3.37 0 0 1-3.367-3.367 3.37 3.37 0 0 1 3.367-3.367 3.37 3.37 0 0 1 3.368 3.367 3.37 3.37 0 0 1-3.368 3.367zm0-4.57c-.663 0-1.203.54-1.203 1.203s.54 1.203 1.203 1.203 1.204-.54 1.204-1.203-.54-1.203-1.203-1.203zm15.593 4.57a3.37 3.37 0 0 1-3.367-3.367 3.37 3.37 0 0 1 3.367-3.367 3.37 3.37 0 0 1 3.368 3.367 3.37 3.37 0 0 1-3.368 3.367zm0-4.57c-.664 0-1.203.54-1.203 1.203s.54 1.203 1.203 1.203 1.204-.54 1.204-1.203-.54-1.203-1.204-1.203z" fill="#7f8284"/><path d="M29.063 51.485H9.43a1.08 1.08 0 0 1-1.082-1.082V26.932c0-.597.484-1.082 1.082-1.082h19.633c.598 0 1.082.485 1.082 1.082v23.471a1.08 1.08 0 0 1-1.082 1.082zm-18.551-2.164h17.469V28.014H10.512v21.307z" fill="#ff6b00"/><defs ><path id="B" d="M54.233 43.661H37.229a1.08 1.08 0 0 1-1.082-1.082c0-.597.484-1.082 1.082-1.082h17.004c.597 0 1.082.485 1.082 1.082a1.08 1.08 0 0 1-1.082 1.082z"/></defs></svg>
